(Projekt Teflonchip_aussen)
(Erstellt mit Estlcam Version 11 Build 11,235)
(Laufzeit ca. 00:01:02 Stunden)

(Benoetigte Werkzeuge:)
(Fraeser 3mm)
G21
G90
G94
M03 S24000
G00 Z5.0000


(Nr. 1: Bohrung 9)
G00 X0.0000 Y0.0000
G00 Z0.5000
G01 Z-1.0000 F600 S24000
G00 Z0.5000
G00 Z-0.5000
G01 Z-2.0000
G00 Z0.5000
G00 Z-1.5000
G01 Z-3.0000
G00 Z0.5000
G00 Z-2.5000
G01 Z-3.2000
G00 Z5.0000


(Nr. 2: Bohrung 10)
G00 X7.0000 Y0.0000 Z5.0000
G00 Z0.5000
G01 Z-1.0000 F600
G00 Z0.5000
G00 Z-0.5000
G01 Z-2.0000
G00 Z0.5000
G00 Z-1.5000
G01 Z-3.0000
G00 Z0.5000
G00 Z-2.5000
G01 Z-3.2000
G00 Z5.0000


(Nr. 3: Bohrung 11)
G00 X14.0000 Y0.0000 Z5.0000
G00 Z0.5000
G01 Z-1.0000 F600
G00 Z0.5000
G00 Z-0.5000
G01 Z-2.0000
G00 Z0.5000
G00 Z-1.5000
G01 Z-3.0000
G00 Z0.5000
G00 Z-2.5000
G01 Z-3.2000
G00 Z5.0000


(Nr. 4: Bohrung 12)
G00 X21.0000 Y0.0000 Z5.0000
G00 Z0.5000
G01 Z-1.0000 F600
G00 Z0.5000
G00 Z-0.5000
G01 Z-2.0000
G00 Z0.5000
G00 Z-1.5000
G01 Z-3.0000
G00 Z0.5000
G00 Z-2.5000
G01 Z-3.2000
G00 Z5.0000


(Nr. 5: Bohrung 13)
G00 X28.0000 Y0.0000 Z5.0000
G00 Z0.5000
G01 Z-1.0000 F600
G00 Z0.5000
G00 Z-0.5000
G01 Z-2.0000
G00 Z0.5000
G00 Z-1.5000
G01 Z-3.0000
G00 Z0.5000
G00 Z-2.5000
G01 Z-3.2000
G00 Z5.0000


(Nr. 6: Bohrung 14)
G00 X35.0000 Y0.0000 Z5.0000
G00 Z0.5000
G01 Z-1.0000 F600
G00 Z0.5000
G00 Z-0.5000
G01 Z-2.0000
G00 Z0.5000
G00 Z-1.5000
G01 Z-3.0000
G00 Z0.5000
G00 Z-2.5000
G01 Z-3.2000
G00 Z5.0000


(Nr. 7: Bohrung 15)
G00 X42.0000 Y0.0000 Z5.0000
G00 Z0.5000
G01 Z-1.0000 F600
G00 Z0.5000
G00 Z-0.5000
G01 Z-2.0000
G00 Z0.5000
G00 Z-1.5000
G01 Z-3.0000
G00 Z0.5000
G00 Z-2.5000
G01 Z-3.2000
G00 Z5.0000


(Nr. 8: Bohrung 16)
G00 X49.0000 Y0.0000 Z5.0000
G00 Z0.5000
G01 Z-1.0000 F600
G00 Z0.5000
G00 Z-0.5000
G01 Z-2.0000
G00 Z0.5000
G00 Z-1.5000
G01 Z-3.0000
G00 Z0.5000
G00 Z-2.5000
G01 Z-3.2000
G00 Z5.0000


(Nr. 9: Bohrung 8)
G00 X49.0000 Y17.0000 Z5.0000
G00 Z0.5000
G01 Z-1.0000 F600
G00 Z0.5000
G00 Z-0.5000
G01 Z-2.0000
G00 Z0.5000
G00 Z-1.5000
G01 Z-3.0000
G00 Z0.5000
G00 Z-2.5000
G01 Z-3.2000
G00 Z5.0000


(Nr. 10: Bohrung 7)
G00 X42.0000 Y17.0000 Z5.0000
G00 Z0.5000
G01 Z-1.0000 F600
G00 Z0.5000
G00 Z-0.5000
G01 Z-2.0000
G00 Z0.5000
G00 Z-1.5000
G01 Z-3.0000
G00 Z0.5000
G00 Z-2.5000
G01 Z-3.2000
G00 Z5.0000


(Nr. 11: Bohrung 6)
G00 X35.0000 Y17.0000 Z5.0000
G00 Z0.5000
G01 Z-1.0000 F600
G00 Z0.5000
G00 Z-0.5000
G01 Z-2.0000
G00 Z0.5000
G00 Z-1.5000
G01 Z-3.0000
G00 Z0.5000
G00 Z-2.5000
G01 Z-3.2000
G00 Z5.0000


(Nr. 12: Bohrung 5)
G00 X28.0000 Y17.0000 Z5.0000
G00 Z0.5000
G01 Z-1.0000 F600
G00 Z0.5000
G00 Z-0.5000
G01 Z-2.0000
G00 Z0.5000
G00 Z-1.5000
G01 Z-3.0000
G00 Z0.5000
G00 Z-2.5000
G01 Z-3.2000
G00 Z5.0000


(Nr. 13: Bohrung 4)
G00 X21.0000 Y17.0000 Z5.0000
G00 Z0.5000
G01 Z-1.0000 F600
G00 Z0.5000
G00 Z-0.5000
G01 Z-2.0000
G00 Z0.5000
G00 Z-1.5000
G01 Z-3.0000
G00 Z0.5000
G00 Z-2.5000
G01 Z-3.2000
G00 Z5.0000


(Nr. 14: Bohrung 3)
G00 X14.0000 Y17.0000 Z5.0000
G00 Z0.5000
G01 Z-1.0000 F600
G00 Z0.5000
G00 Z-0.5000
G01 Z-2.0000
G00 Z0.5000
G00 Z-1.5000
G01 Z-3.0000
G00 Z0.5000
G00 Z-2.5000
G01 Z-3.2000
G00 Z5.0000


(Nr. 15: Bohrung 2)
G00 X7.0000 Y17.0000 Z5.0000
G00 Z0.5000
G01 Z-1.0000 F600
G00 Z0.5000
G00 Z-0.5000
G01 Z-2.0000
G00 Z0.5000
G00 Z-1.5000
G01 Z-3.0000
G00 Z0.5000
G00 Z-2.5000
G01 Z-3.2000
G00 Z5.0000


(Nr. 16: Bohrung 1)
G00 X0.0000 Y17.0000 Z5.0000
G00 Z0.5000
G01 Z-1.0000 F600
G00 Z0.5000
G00 Z-0.5000
G01 Z-2.0000
G00 Z0.5000
G00 Z-1.5000
G01 Z-3.0000
G00 Z0.5000
G00 Z-2.5000
G01 Z-3.2000
G00 Z5.0000
G00 Y0.0000

M05
M30
